X: 14064
T: Ms. WHITTEMORE'S WALTZ
C: Bob McQuillen 7 July'10
B: Bob's Note Book 14 #64
%R: waltz
%D:2010
Z: 2020 John Chambers <jc:trillian.mit.edu>
M: 3/4
L: 1/4
K: D	% and Bm
|: "D"Aa>A |  "A7"g2g |  "D"fA>f | "A7"e2A  |  "G"B>cd | "D"A"Bm"de | "G6"fa>g | "A7"fe2 |
|  "D"Aa>A |  "A7"g2g |  "D"fdf  | "A7"e>cA |  "G" Bcd | "A7"edc    |  "D"d3-  |     d3 :|
K: Bm
|:"Bm"B>cd | "F#7"cde | "Bm"f>ga | "Em"gfe  | "Bm"f>gf | "F#7"e>fe  | "Bm"dBd  | "F#"c3  |
| "Bm"B>cd | "F#7"cde | "Bm"fa>f | "Em"e3   | "Bm"fd>f | "A"ecA     | "Bm"B3-  |     B3 :|
%%begintext align
%% Seattle-ite Wendy Whittemore
%% started life up in Dublin, MH where I used to live, and I've
%% known her for years. Her mom used to go to contra dances
%% with their pet mini-horse in the back of a micro-bus
%% (not to dance with, 'tho!) Wendy's one of the wonderful
%% singers in that great Seattle group, the "S-Curves",
%% and boy, can they sing! Lucky me gets to hear
%% them at Folklife every year! Fantabulous!!
%%endtext

%%sep 1 1 500

%%sep 1 1 500

